X:1
T:Sir Rodger de Coverly. AJH.001
T:Sir Roger de Coverley,aka. AJH.001
M:9/8
L:1/8
Q:3/8=120
S:A.J.Hughes MS
O:England
A:North Shropshire
Z:Neil Brookes 2006
K:D
A,/2B,/2C/2|:D2D D2 B AFD|B,2E EFD CB,A,|\
D2D D2B AFA|d2D DED CB,A,:|!
|:F2A G2B AFD|B,2E E2D CB,A,|F2A G2B AFA|d2D DED CB,A,:|!
|:a2f g2e f2d|cde e2f gfe|afa geg fdf|d2d A2G FED:|

